swiss/communes/0159.svg

<?xml version="1.0" encoding="UTF-8" standalone="no"?>
<!-- Created with Inkscape (http://www.inkscape.org/) -->
<svg
   xmlns:svg="http://www.w3.org/2000/svg"
   xmlns="http://www.w3.org/2000/svg"
   version="1.0"
   width="199.43626"
   height="233.60851"
   id="svg2780">
  <defs
     id="defs2782" />
  <g
     transform="translate(-24.441982,-811.89527)"
     id="layer1">
    <path
       d="M 25.441982,812.89527 L 29.031728,963.71009 C 31.595824,1071.435 216.72438,1071.435 219.28849,963.71009 L 222.87824,812.89527 L 25.441982,812.89527 z"
       id="path3282"
       style="fill:#ffffff;fill-opacity:1;fill-rule:evenodd;stroke:#000000;stroke-width:1.99999988;stroke-linecap:butt;stroke-miterlimit:4;stroke-dashoffset:0;stroke-opacity:1" />
    <path
       d="M 78.983281,1024.9312 C 67.527167,994.87282 119.2275,1023.7751 119.25697,994.50772 L 119.38166,870.69419 L 130.35405,870.94357 L 129.48125,994.38304 C 129.25137,1026.8955 182.23684,995.97073 169.87962,1026.4274 C 168.69641,1000.6895 138.70197,1028.4939 127.48627,1007.8492 C 124.92903,1014.9869 130.08933,1022.8921 127.73564,1026.8015 C 125.43729,1030.619 123.19978,1031.5814 127.48627,1038.3973 C 118.50591,1036.1419 121.31764,1030.4273 123.19978,1025.804 C 125.10674,1021.1197 118.35929,1018.78 120.87789,1007.8492 C 107.0921,1027.5209 80.999293,999.80467 78.983281,1024.9312 z"
       id="path2618"
       style="fill:#a53921;fill-opacity:1;fill-rule:evenodd;stroke:#000000;stroke-width:1px;stroke-linecap:butt;stroke-linejoin:round;stroke-opacity:1" />
    <path
       d="M 123.58704,971.07262 L 81.796086,929.28167 C 78.896552,926.38214 75.548905,924.7067 72.274099,923.28635 L 97.3134,923.28635 C 96.055486,924.59472 95.735738,926.79203 97.313399,928.34644 L 123.58704,954.23281 L 149.86067,928.34644 C 151.43833,926.79203 151.11858,924.59472 149.86067,923.28635 L 174.89997,923.28635 C 171.62516,924.7067 168.27751,926.38213 165.37798,929.28167 L 123.58704,971.07262 z"
       id="path3397"
       style="fill:#000000;fill-opacity:1;fill-rule:evenodd;stroke:none;stroke-width:1px;stroke-linecap:butt;stroke-linejoin:miter;stroke-opacity:1" />
    <path
       d="M 124.16011,999.72675 L 193.50311,932.19117 C 197.87317,927.93772 202.83612,926.20553 207.69792,923.28635 L 179.22013,923.28635 C 180.47804,924.59472 180.52599,926.78465 178.95563,928.34644 L 124.16011,982.88694 L 69.364602,928.34644 C 67.794248,926.78465 67.842189,924.59472 69.100103,923.28635 L 40.622306,923.28635 C 45.48411,926.20553 50.447058,927.93772 54.817121,932.19117 L 124.16011,999.72675 z"
       id="path3395"
       style="fill:#000000;fill-opacity:1;fill-rule:evenodd;stroke:none;stroke-width:1px;stroke-linecap:butt;stroke-linejoin:miter;stroke-opacity:1" />
    <path
       d="M 124.55903,890.14319 C 111.71069,890.14319 101.27778,900.5761 101.27778,913.42444 C 101.27778,926.27278 111.7107,936.67444 124.55903,936.67444 C 137.40737,936.67444 147.84027,926.27277 147.84028,913.42444 C 147.84028,900.5761 137.40737,890.14319 124.55903,890.14319 z M 124.55903,899.83069 C 132.05389,899.83069 138.12153,905.92958 138.12153,913.42444 C 138.12152,920.9193 132.05389,926.98694 124.55903,926.98694 C 117.06417,926.98694 110.96528,920.9193 110.96528,913.42444 C 110.96528,905.92958 117.06417,899.83069 124.55903,899.83069 z"
       id="path3392"
       style="color:#000000;fill:#000000;fill-opacity:1;fill-rule:evenodd;stroke:none;stroke-width:1pt;stroke-linecap:butt;stroke-linejoin:miter;marker:none;marker-start:none;marker-mid:none;marker-end:none;stroke-miterlimit:4;stroke-dasharray:none;stroke-dashoffset:0;stroke-opacity:1;visibility:visible;display:inline;overflow:visible;enable-background:accumulate" />
    <path
       d="M 100.2229,849.57911 C 99.803886,844.69678 100.89422,840.56912 102.3389,836.61863 C 112.86544,837.66029 118.08437,827.24869 124.38054,819.16165 C 128.53427,826.49304 134.77808,837.49942 146.42217,836.26596 C 147.39739,840.46422 148.66102,844.62643 147.83284,849.05011 C 145.24767,847.50055 143.19275,845.06724 141.30851,842.34945 L 141.66118,849.13828 C 133.82206,846.94973 129.14738,839.65282 123.19978,836.41343 C 118.86819,840.51123 114.06312,846.80275 107.80522,848.69745 L 107.45256,842.87845 C 105.84712,845.73769 103.92011,848.34681 100.2229,849.57911 z"
       id="path2614"
       style="fill:#316b10;fill-opacity:1;fill-rule:evenodd;stroke:#000000;stroke-width:0.99921262;stroke-linecap:butt;stroke-linejoin:round;stroke-miterlimit:4;stroke-dasharray:none;stroke-opacity:1" />
    <path
       d="M 141.74934,874.08942 L 108.33422,872.94325 L 106.13006,864.12659 C 103.37036,867.22619 100.71519,870.56097 97.0489,871.62075 L 96.431734,865.27276 C 93.951425,867.87846 91.520455,870.5617 87.438746,870.65092 C 87.703075,865.6254 88.673248,860.71751 90.348242,855.9271 C 104.46681,865.50363 113.42989,846.95526 123.19978,832.12213 C 133.66948,841.30599 140.44035,865.057 158.63285,856.63244 C 159.76645,861.4816 161.05456,866.33076 161.05782,871.17992 C 156.8204,870.45062 154.67526,867.62905 152.24117,865.09642 L 152.4175,872.59058 C 147.71586,870.78429 145.29341,866.95205 142.63101,863.33309 L 141.74934,874.08942 z"
       id="path3408"
       style="fill:#316b10;fill-opacity:1;fill-rule:evenodd;stroke:#000000;stroke-width:0.99921262;stroke-linecap:butt;stroke-linejoin:round;stroke-miterlimit:4;stroke-dasharray:none;stroke-opacity:1" />
    <path
       d="M 115.74021,860.24726 C 105.48324,872.57052 91.090527,885.36678 79.41559,873.56041 C 77.951882,879.48682 76.780955,885.53871 76.946926,892.16356 C 80.382374,891.56969 82.892588,889.12534 85.410915,886.69723 C 85.661653,888.53841 85.451384,890.03383 86.55708,892.51622 C 90.565232,891.24565 94.003908,888.83613 97.3134,886.16823 L 97.489733,890.84106 C 101.78324,889.08594 105.53451,885.70408 109.12772,881.84807 L 109.03956,886.2564 C 117.93988,883.02841 121.00728,876.12784 125.21812,869.15208 C 127.50233,871.582 130.88489,882.4227 139.45701,885.9919 L 139.36885,881.93624 C 143.16765,885.34703 146.69101,889.15129 152.06483,890.31206 L 151.53583,885.7274 C 154.89892,888.31044 157.39715,891.20798 163.17382,892.91336 L 162.90932,886.96173 C 165.25745,889.0807 167.30236,890.53307 170.57981,891.72272 C 170.84035,884.07205 170.59637,878.94393 170.40348,873.56041 C 156.98511,886.45266 141.00488,872.49673 131.78653,860.07093 C 131.03844,859.06254 129.67973,858.99085 129.40603,859.8946 C 128.32172,863.47501 127.16579,866.97313 124.29237,869.41659 C 121.19398,866.50709 119.59148,863.85958 118.82604,860.6881 C 118.59137,859.71578 116.43491,859.4126 115.74021,860.24726 z"
       id="path2605"
       style="fill:#316b10;fill-opacity:1;fill-rule:evenodd;stroke:#000000;stroke-width:0.99921262;stroke-linecap:butt;stroke-linejoin:round;stroke-miterlimit:4;stroke-dasharray:none;stroke-opacity:1" />
    <path
       d="M 127.40278,865.33069 C 126.62974,866.85223 125.63656,868.26898 124.27778,869.42444 C 122.81754,868.05322 121.7063,866.72997 120.84028,865.39319 C 117.7439,869.89369 115.75425,875.14758 115.99653,881.92444 C 117.65674,880.62386 118.95891,879.1457 120.15278,877.61194 C 121.95432,879.64271 123.3039,881.12945 125.34028,882.45569 C 127.24695,881.31881 128.59008,879.26476 130.02778,877.42444 C 131.23272,879.16392 132.44784,880.83786 133.65278,882.11194 C 133.44234,875.97089 131.23478,870.41546 127.40278,865.33069 z"
       id="path2612"
       style="fill:#316b10;fill-opacity:1;fill-rule:evenodd;stroke:#000000;stroke-width:0.99921262;stroke-linecap:butt;stroke-linejoin:round;stroke-miterlimit:4;stroke-dasharray:none;stroke-opacity:1" />
    <path
       d="M 124.38054,819.16165 C 121.05779,826.19865 117.65763,833.16599 116.62188,842.26129 C 117.91499,842.04174 119.2081,841.81161 120.50121,841.82046 C 121.0755,844.69829 121.83151,847.55016 124.02787,850.19628 C 126.25596,847.62031 126.93914,844.38224 127.55453,841.11512 C 128.80081,841.23268 129.86378,841.35023 130.64036,841.46779 C 130.44175,834.03241 127.31224,826.59703 124.38054,819.16165 z"
       id="path2616"
       style="fill:#316b10;fill-opacity:1;fill-rule:evenodd;stroke:#000000;stroke-width:0.99921262;stroke-linecap:butt;stroke-linejoin:round;stroke-miterlimit:4;stroke-dasharray:none;stroke-opacity:1" />
  </g>
</svg>

<svg xmlns="http://www.w3.org/2000/svg" version="1.0" width="199.436" height="233.609"><path d="m25.442 812.895 3.59 150.815c2.564 107.725 187.692 107.725 190.256 0l3.59-150.815H25.442z" style="fill:#fff;fill-opacity:1;fill-rule:evenodd;stroke:#000;stroke-width:1.99999988;stroke-linecap:butt;stroke-miterlimit:4;stroke-dashoffset:0;stroke-opacity:1" transform="translate(-24.442 -811.895)"/><path d="M78.983 1024.931c-11.456-30.058 40.245-1.156 40.274-30.423l.125-123.814 10.972.25-.873 123.439c-.23 32.513 52.756 1.588 40.399 32.044-1.184-25.737-31.178 2.067-42.394-18.578-2.557 7.138 2.603 15.043.25 18.952-2.299 3.818-4.536 4.78-.25 11.596-8.98-2.255-6.168-7.97-4.286-12.593 1.907-4.684-4.84-7.024-2.322-17.955-13.786 19.672-39.879-8.044-41.895 17.082z" style="fill:#a53921;fill-opacity:1;fill-rule:evenodd;stroke:#000;stroke-width:1px;stroke-linecap:butt;stroke-linejoin:round;stroke-opacity:1" transform="translate(-24.442 -811.895)"/><path d="m123.587 971.073-41.79-41.791c-2.9-2.9-6.248-4.575-9.523-5.996h25.04c-1.259 1.309-1.578 3.506 0 5.06l26.273 25.887 26.274-25.887c1.577-1.554 1.258-3.751 0-5.06H174.9c-3.275 1.42-6.622 3.096-9.522 5.996l-41.791 41.79z" style="fill:#000;fill-opacity:1;fill-rule:evenodd;stroke:none;stroke-width:1px;stroke-linecap:butt;stroke-linejoin:miter;stroke-opacity:1" transform="translate(-24.442 -811.895)"/><path d="m124.16 999.727 69.343-67.536c4.37-4.253 9.333-5.985 14.195-8.905H179.22c1.258 1.309 1.306 3.499-.264 5.06l-54.796 54.54-54.795-54.54c-1.57-1.561-1.523-3.751-.265-5.06H40.622c4.862 2.92 9.825 4.652 14.195 8.905l69.343 67.536z" style="fill:#000;fill-opacity:1;fill-rule:evenodd;stroke:none;stroke-width:1px;stroke-linecap:butt;stroke-linejoin:miter;stroke-opacity:1" transform="translate(-24.442 -811.895)"/><path d="M124.559 890.143c-12.848 0-23.281 10.433-23.281 23.281 0 12.849 10.433 23.25 23.281 23.25 12.848 0 23.281-10.401 23.281-23.25 0-12.848-10.433-23.28-23.281-23.28zm0 9.688c7.495 0 13.563 6.099 13.563 13.593 0 7.495-6.068 13.563-13.563 13.563-7.495 0-13.594-6.068-13.594-13.563 0-7.494 6.1-13.593 13.594-13.593z" style="color:#000;fill:#000;fill-opacity:1;fill-rule:evenodd;stroke:none;stroke-width:1pt;stroke-linecap:butt;stroke-linejoin:miter;marker:none;marker-start:none;marker-mid:none;marker-end:none;stroke-miterlimit:4;stroke-dasharray:none;stroke-dashoffset:0;stroke-opacity:1;visibility:visible;display:inline;overflow:visible;enable-background:accumulate" transform="translate(-24.442 -811.895)"/><path d="M100.223 849.58c-.42-4.883.671-9.01 2.116-12.961 10.526 1.041 15.745-9.37 22.042-17.457 4.153 7.331 10.397 18.337 22.041 17.104.975 4.198 2.239 8.36 1.41 12.784-2.584-1.55-4.64-3.983-6.523-6.7l.352 6.788c-7.839-2.188-12.514-9.485-18.461-12.725-4.332 4.098-9.137 10.39-15.395 12.284l-.352-5.819c-1.606 2.86-3.533 5.469-7.23 6.701z" style="fill:#316b10;fill-opacity:1;fill-rule:evenodd;stroke:#000;stroke-width:.99921262;stroke-linecap:butt;stroke-linejoin:round;stroke-miterlimit:4;stroke-dasharray:none;stroke-opacity:1" transform="translate(-24.442 -811.895)"/><path d="m141.75 874.09-33.416-1.147-2.204-8.816c-2.76 3.1-5.415 6.434-9.081 7.494l-.617-6.348c-2.48 2.605-4.912 5.289-8.993 5.378a52.794 52.794 0 0 1 2.91-14.724c14.118 9.577 23.08-8.972 32.85-23.805 10.47 9.184 17.241 32.935 35.434 24.51 1.133 4.85 2.422 9.699 2.425 14.548-4.238-.73-6.383-3.55-8.817-6.084l.176 7.495c-4.701-1.807-7.124-5.639-9.786-9.258l-.882 10.756z" style="fill:#316b10;fill-opacity:1;fill-rule:evenodd;stroke:#000;stroke-width:.99921262;stroke-linecap:butt;stroke-linejoin:round;stroke-miterlimit:4;stroke-dasharray:none;stroke-opacity:1" transform="translate(-24.442 -811.895)"/><path d="M115.74 860.247c-10.257 12.324-24.65 25.12-36.324 13.313-1.464 5.927-2.635 11.979-2.47 18.604 3.436-.594 5.947-3.039 8.465-5.467.25 1.841.04 3.337 1.146 5.82 4.008-1.271 7.447-3.68 10.756-6.349l.177 4.673c4.293-1.755 8.045-5.137 11.638-8.993l-.088 4.408c8.9-3.228 11.967-10.128 16.178-17.104 2.284 2.43 5.667 13.27 14.239 16.84l-.088-4.056c3.799 3.411 7.322 7.215 12.696 8.376l-.53-4.585c3.364 2.583 5.862 5.481 11.639 7.186l-.265-5.951c2.348 2.119 4.393 3.571 7.67 4.76.261-7.65.017-12.778-.176-18.162-13.418 12.893-29.398-1.063-38.616-13.49-.749-1.007-2.107-1.08-2.381-.175-1.084 3.58-2.24 7.078-5.114 9.522-3.098-2.91-4.7-5.557-5.466-8.729-.235-.972-2.391-1.275-3.086-.44z" style="fill:#316b10;fill-opacity:1;fill-rule:evenodd;stroke:#000;stroke-width:.99921262;stroke-linecap:butt;stroke-linejoin:round;stroke-miterlimit:4;stroke-dasharray:none;stroke-opacity:1" transform="translate(-24.442 -811.895)"/><path d="M127.403 865.33c-.773 1.522-1.766 2.939-3.125 4.094-1.46-1.37-2.572-2.694-3.438-4.03-3.096 4.5-5.086 9.754-4.843 16.53 1.66-1.3 2.962-2.778 4.156-4.312 1.801 2.03 3.15 3.517 5.187 4.844 1.907-1.137 3.25-3.191 4.688-5.032 1.205 1.74 2.42 3.414 3.625 4.688-.21-6.141-2.418-11.697-6.25-16.781zM124.38 819.162c-3.322 7.037-6.722 14.004-7.758 23.1 1.293-.22 2.586-.45 3.88-.442.574 2.878 1.33 5.73 3.526 8.376 2.228-2.576 2.911-5.814 3.527-9.08 1.246.117 2.309.234 3.085.352-.198-7.436-3.328-14.871-6.26-22.306z" style="fill:#316b10;fill-opacity:1;fill-rule:evenodd;stroke:#000;stroke-width:.99921262;stroke-linecap:butt;stroke-linejoin:round;stroke-miterlimit:4;stroke-dasharray:none;stroke-opacity:1" transform="translate(-24.442 -811.895)"/></svg>
